packages/foundations/assets/icons/functional/images/arrows/chevron_down_20.svg

<svg width="20" height="20" viewBox="0 0 20 20" fill="none" xmlns="http://www.w3.org/2000/svg">
<g clip-path="url(#clip0_77_494)">
<path fill-rule="evenodd" clip-rule="evenodd" d="M4.994 6.49993C4.73053 6.50098 4.47816 6.60618 4.29195 6.79258C4.10574 6.97898 4.00079 7.23145 4 7.49493C4 7.76093 4.133 8.02593 4.298 8.19193L9.304 13.2019C9.503 13.3999 9.768 13.4999 10 13.4999C10.2265 13.504 10.4468 13.4259 10.62 13.2799L15.702 8.19193C15.901 8.02593 16 7.76093 16 7.49493C15.9992 7.23145 15.8943 6.97898 15.7081 6.79258C15.5218 6.60618 15.2695 6.50098 15.006 6.49993C14.74 6.49993 14.476 6.59993 14.276 6.79893L10 11.0789L5.724 6.79893C5.628 6.70348 5.5141 6.62793 5.38882 6.57662C5.26355 6.52531 5.12937 6.49925 4.994 6.49993Z" fill="#1A1C1F"/>
</g>
<defs>
<clipPath id="clip0_77_494">
<rect width="20" height="20" fill="white"/>
</clipPath>
</defs>
</svg>

<svg xmlns="http://www.w3.org/2000/svg" width="20" height="20" fill="none"><g clip-path="url(#a)"><path fill="#1A1C1F" fill-rule="evenodd" d="M4.994 6.5A1 1 0 0 0 4 7.495c0 .266.133.53.298.697l5.006 5.01c.199.198.464.298.696.298a.94.94 0 0 0 .62-.22l5.082-5.088c.199-.166.298-.431.298-.697a1 1 0 0 0-.994-.995c-.266 0-.53.1-.73.299L10 11.079l-4.276-4.28a1.03 1.03 0 0 0-.73-.3" clip-rule="evenodd"/></g><defs><clipPath id="a"><path fill="#fff" d="M0 0h20v20H0z"/></clipPath></defs></svg>
